src/images/icons/fire.svg

<svg width="400" height="472" viewBox="0 0 400 472" fill="none" xmlns="http://www.w3.org/2000/svg">
<path d="M417.788 322.005C412.29 309.679 404.707 297.542 393.617 283.522C365.653 248.332 357.122 169.86 357.027 169.108C356.648 165.344 353.994 162.239 350.486 161.11C346.884 159.981 342.998 161.016 340.438 163.838C307.072 201.193 321.101 258.87 328.684 281.923C330.77 288.227 333.045 295.66 334.655 303.187C346.978 364.064 323.185 391.633 317.593 397.184C312.19 398.689 308.493 397.937 305.08 394.267C293.326 381.377 289.44 339.13 294.937 284.087C296.076 272.89 295.791 262.822 294.179 253.413C282.584 185.759 240.07 142.362 229.247 127.143C199.482 83.1085 196.449 9.81166 196.354 9.15302C196.259 5.67165 194.269 2.56665 191.141 1.0612C188.107 -0.444256 184.41 -0.256073 181.567 1.71984C131.896 35.4985 136.161 116.887 143.081 162.333C144.693 172.871 147.821 183.598 153.224 197.147C172.467 245.604 149.432 308.174 149.243 308.739C149.053 309.303 148.864 309.773 148.769 310.338C145.83 325.769 140.901 334.99 135.403 334.99C134.834 334.99 134.266 334.896 133.602 334.708C126.872 333.296 123.365 326.145 123.27 319.935C122.891 239.676 42.4125 212.672 41.5594 212.389C37.9573 211.26 33.976 212.295 31.5114 215.212C28.9521 218.129 28.4781 222.175 30.1844 225.562C31.1323 227.538 34.1656 236.194 32.0802 266.774C30.2791 294.249 25.2552 321.441 17.1979 347.504C-1.95002 409.98 1.08331 469.164 1.2729 471.986C15.9969 632.23 246.252 660.308 382.904 570.029C397.881 560.149 410.109 548.859 419.115 536.439C469.545 466.811 439.875 372.25 417.788 322.005ZM67.5332 475.091C67.8176 480.266 63.8363 484.689 58.6228 484.971H58.0541C53.0301 484.971 48.8593 481.113 48.5749 476.126C47.7218 462.389 47.9113 447.993 48.954 432.374C49.3332 427.199 53.8832 423.341 59.0968 423.623C64.3103 423.999 68.2916 428.515 67.9124 433.69C66.8687 448.558 66.6801 462.107 67.5332 475.091ZM72.1771 391.727C71.6083 396.525 67.5323 400.007 62.7927 400.007C62.4135 400.007 62.0343 400.007 61.5604 399.913C56.4416 399.254 52.7448 394.643 53.3135 389.469L57.8635 353.149C58.5271 348.068 63.1718 344.399 68.4802 344.964C73.6937 345.622 77.3906 350.327 76.7271 355.502L72.1771 391.727Z" fill="#3D3D3D"/>
</svg>

<svg width="400" height="472" fill="none" xmlns="http://www.w3.org/2000/svg"><path d="M417.788 322.005c-5.498-12.326-13.081-24.463-24.171-38.483-27.964-35.19-36.495-113.662-36.59-114.414-.379-3.764-3.033-6.869-6.541-7.998a9.61 9.61 0 0 0-10.048 2.728c-33.366 37.355-19.337 95.032-11.754 118.085 2.086 6.304 4.361 13.737 5.971 21.264 12.323 60.877-11.47 88.446-17.062 93.997-5.403 1.505-9.1.753-12.513-2.917-11.754-12.89-15.64-55.137-10.143-110.18 1.139-11.197.854-21.265-.758-30.674-11.595-67.654-54.109-111.051-64.932-126.27-29.765-44.034-32.798-117.331-32.893-117.99-.095-3.481-2.085-6.586-5.213-8.092-3.034-1.505-6.731-1.317-9.574.659-49.671 33.779-45.406 115.167-38.486 160.613 1.612 10.538 4.74 21.265 10.143 34.814 19.243 48.457-3.792 111.027-3.981 111.592-.19.564-.379 1.034-.474 1.599-2.939 15.431-7.868 24.652-13.366 24.652-.569 0-1.137-.094-1.801-.282-6.73-1.412-10.237-8.563-10.332-14.773-.379-80.259-80.857-107.263-81.71-107.546-3.603-1.129-7.584-.094-10.049 2.823-2.559 2.917-3.033 6.963-1.327 10.35.948 1.976 3.982 10.632 1.896 41.212-1.8 27.475-6.825 54.667-14.882 80.73C-1.95 409.98 1.083 469.164 1.273 471.986c14.724 160.244 244.979 188.322 381.631 98.043 14.977-9.88 27.205-21.17 36.211-33.59 50.43-69.628 20.76-164.189-1.327-214.434ZM67.533 475.091c.285 5.175-3.697 9.598-8.91 9.88h-.569c-5.024 0-9.195-3.858-9.48-8.845-.852-13.737-.663-28.133.38-43.752.38-5.175 4.93-9.033 10.143-8.751 5.213.376 9.195 4.892 8.815 10.067-1.043 14.868-1.232 28.417-.379 41.401Zm4.644-83.364c-.569 4.798-4.645 8.28-9.384 8.28-.38 0-.759 0-1.233-.094-5.118-.659-8.815-5.27-8.247-10.444l4.55-36.32c.664-5.081 5.309-8.75 10.617-8.185 5.214.658 8.91 5.363 8.247 10.538l-4.55 36.225Z" fill="#3D3D3D"/></svg>
